X:23
T:Dull Sir John. (p)1651.PLFD.023
M:6/4
L:1/4
Q:3/4=90
S:Playford, Dancing Master,1st Ed.,1651.
O:England
H:1651.
Z:Chris Partington.
K:Gm
G2 ^F G2 A|B>AB cAF|B2 A B2 c|d3-d2 c|
d2 c d2 =e|f>gf F2 B|A2 B c>dc|B6:|
|:d2 c d2 =e|f>gf F2 B|A2 B c>d=B|c3-c2 f|
d>cd c2 A|B b2 a2 d|d2 g g>a^f|g6:|
